images/fq3-hover.svg

<svg width="27" height="20" viewBox="0 0 27 20" fill="none" xmlns="http://www.w3.org/2000/svg">
<path d="M0 2.33333C0 1.04533 1.04533 0 2.33333 0H20.3333C21.6213 0 22.6667 1.04533 22.6667 2.33333V13.6667C22.6667 14.2855 22.4208 14.879 21.9832 15.3166C21.5457 15.7542 20.9522 16 20.3333 16H2.33333C1.71449 16 1.121 15.7542 0.683418 15.3166C0.245833 14.879 0 14.2855 0 13.6667V2.33333ZM4 1.66667V3C4 3.26522 3.89464 3.51957 3.70711 3.70711C3.51957 3.89464 3.26522 4 3 4H1.66667V6H3C3.39397 6 3.78407 5.9224 4.14805 5.77164C4.51203 5.62087 4.84274 5.3999 5.12132 5.12132C5.3999 4.84274 5.62087 4.51203 5.77164 4.14805C5.9224 3.78407 6 3.39397 6 3V1.66667H4ZM11.3333 11.3333C12.129 11.3333 12.892 11.0173 13.4547 10.4547C14.0173 9.89205 14.3333 9.12898 14.3333 8.33333C14.3333 7.53768 14.0173 6.77462 13.4547 6.21201C12.892 5.6494 12.129 5.33333 11.3333 5.33333C10.5377 5.33333 9.77462 5.6494 9.21201 6.21201C8.6494 6.77462 8.33333 7.53768 8.33333 8.33333C8.33333 9.12898 8.6494 9.89205 9.21201 10.4547C9.77462 11.0173 10.5377 11.3333 11.3333 11.3333ZM1.66667 12H3C3.26522 12 3.51957 12.1054 3.70711 12.2929C3.89464 12.4804 4 12.7348 4 13V14.3333H6V13C6 12.2044 5.68393 11.4413 5.12132 10.8787C4.55871 10.3161 3.79565 10 3 10H1.66667V12ZM18.6667 13C18.6667 12.7348 18.772 12.4804 18.9596 12.2929C19.1471 12.1054 19.4014 12 19.6667 12H21V10H19.6667C18.871 10 18.108 10.3161 17.5453 10.8787C16.9827 11.4413 16.6667 12.2044 16.6667 13V14.3333H18.6667V13ZM18.6667 3V1.66667H16.6667V3C16.6667 3.39397 16.7443 3.78407 16.895 4.14805C17.0458 4.51203 17.2668 4.84274 17.5453 5.12132C18.108 5.68393 18.871 6 19.6667 6H21V4H19.6667C19.4014 4 19.1471 3.89464 18.9596 3.70711C18.772 3.51957 18.6667 3.26522 18.6667 3ZM3.20133 18C3.55251 18.6083 4.05766 19.1133 4.66597 19.4644C5.27428 19.8155 5.96431 20.0002 6.66667 20H20.3333C21.165 20 21.9886 19.8362 22.757 19.5179C23.5254 19.1996 24.2236 18.7331 24.8117 18.145C25.3998 17.5569 25.8663 16.8587 26.1846 16.0903C26.5028 15.3219 26.6667 14.4984 26.6667 13.6667V6.66667C26.6669 5.96431 26.4822 5.27428 26.1311 4.66597C25.78 4.05766 25.2749 3.55251 24.6667 3.20133V13.6667C24.6667 14.8159 24.2101 15.9181 23.3975 16.7308C22.5848 17.5435 21.4826 18 20.3333 18H3.20133Z" fill="#2161AB"/>
</svg>

<svg width="27" height="20" fill="none" xmlns="http://www.w3.org/2000/svg"><path d="M0 2.333A2.334 2.334 0 012.333 0h18a2.334 2.334 0 012.334 2.333v11.334A2.333 2.333 0 0120.333 16h-18A2.333 2.333 0 010 13.667V2.333zm4-.666V3a1 1 0 01-1 1H1.667v2H3a3 3 0 003-3V1.667H4zm7.333 9.666a3 3 0 100-6 3 3 0 000 6zM1.667 12H3a1 1 0 011 1v1.333h2V13a3 3 0 00-3-3H1.667v2zm17 1a1 1 0 011-1H21v-2h-1.333a3 3 0 00-3 3v1.333h2V13zm0-10V1.667h-2V3a3.001 3.001 0 003 3H21V4h-1.333a1 1 0 01-1-1zM3.2 18a4 4 0 003.466 2h13.666a6.333 6.333 0 006.334-6.333v-7a4 4 0 00-2-3.466v10.466A4.334 4.334 0 0120.333 18H3.201z" fill="#2161AB"/></svg>
